icons/minimmize.svg

<svg width="24" height="24" viewBox="0 0 24 24" fill="none" xmlns="http://www.w3.org/2000/svg">
<path fill-rule="evenodd" clip-rule="evenodd" d="M7 3C7.55228 3 8 3.44772 8 4V8C8 8.55228 7.55228 9 7 9H3C2.44772 9 2 8.55228 2 8C2 7.44772 2.44772 7 3 7H6V4C6 3.44772 6.44772 3 7 3ZM17 3C17.5523 3 18 3.44772 18 4V7H21C21.5523 7 22 7.44772 22 8C22 8.55228 21.5523 9 21 9H17C16.4477 9 16 8.55228 16 8V4C16 3.44772 16.4477 3 17 3ZM2 16C2 15.4477 2.44772 15 3 15H7C7.55228 15 8 15.4477 8 16V20C8 20.5523 7.55228 21 7 21C6.44772 21 6 20.5523 6 20V17H3C2.44772 17 2 16.5523 2 16ZM16 16C16 15.4477 16.4477 15 17 15H21C21.5523 15 22 15.4477 22 16C22 16.5523 21.5523 17 21 17H18V20C18 20.5523 17.5523 21 17 21C16.4477 21 16 20.5523 16 20V16Z" fill="black"/>
</svg>

<svg
  width="24"
  height="24"
  viewBox="0 0 24 24"
  xmlns="http://www.w3.org/2000/svg"
>
  <path
    fill-rule="evenodd"
    clip-rule="evenodd"
    d="M7 3a1 1 0 0 1 1 1v4a1 1 0 0 1-1 1H3a1 1 0 0 1 0-2h3V4a1 1 0 0 1 1-1zm10 0a1 1 0 0 1 1 1v3h3a1 1 0 1 1 0 2h-4a1 1 0 0 1-1-1V4a1 1 0 0 1 1-1zM2 16a1 1 0 0 1 1-1h4a1 1 0 0 1 1 1v4a1 1 0 1 1-2 0v-3H3a1 1 0 0 1-1-1zm14 0a1 1 0 0 1 1-1h4a1 1 0 1 1 0 2h-3v3a1 1 0 1 1-2 0v-4z"
  />
</svg>
